assets/features/channel/east-asia/GMO.svg

<svg width="80" height="80" viewBox="0 0 80 80" fill="none" xmlns="http://www.w3.org/2000/svg">
<rect width="80" height="80" rx="8" fill="#005BAC"/>
<path d="M40 45.6608H40.8653C40.911 45.6608 40.9649 45.6313 40.9894 45.5935L44.5799 39.7115L46.5316 46.4429C46.5398 46.4644 46.5541 46.4831 46.5728 46.4965C46.5915 46.51 46.6137 46.5176 46.6367 46.5185H50.4052C50.4483 46.5185 50.4754 46.4834 50.4619 46.4431L46.4857 33.8482C46.4722 33.8077 46.4264 33.77 46.3806 33.77H44.9654C44.9223 33.77 44.8656 33.8023 44.8413 33.8402L40 41.3537L35.1559 33.8399C35.1316 33.8023 35.0777 33.7698 35.0346 33.7698H33.6167C33.5735 33.7698 33.5278 33.8075 33.5143 33.8481L29.5355 46.4429C29.5247 46.4833 29.5491 46.5184 29.5922 46.5184H33.3633C33.4065 46.5184 33.455 46.4833 33.4658 46.4429L35.4201 39.7113L39.0108 45.5934C39.0323 45.6309 39.0888 45.6607 39.1321 45.6607L40 45.6608ZM29.7081 39.3877V39.3851C29.7038 39.3675 29.6938 39.3518 29.6796 39.3405C29.6654 39.3293 29.6478 39.3231 29.6297 39.323H18.8906C18.3218 39.323 17.8609 39.7842 17.8609 40.3505C17.8609 40.4858 17.8875 40.6198 17.9392 40.7448C17.991 40.8698 18.0668 40.9834 18.1624 41.0791C18.2581 41.1747 18.3716 41.2506 18.4965 41.3024C18.6215 41.3542 18.7554 41.3809 18.8906 41.3809H25.271C24.5136 43.39 21.942 44.8679 18.8906 44.8679C15.238 44.8679 12.2808 42.7536 12.2808 40.1456C12.2808 37.5377 15.238 35.4234 18.8906 35.4234C20.8854 35.4234 22.6725 36.0544 23.8856 37.0522C23.8883 37.0576 23.8937 37.0576 23.8963 37.0604C23.9099 37.071 23.926 37.0764 23.9422 37.0764H28.3308C28.3517 37.0757 28.3716 37.0669 28.3862 37.0518C28.4007 37.0367 28.4089 37.0165 28.4088 36.9955C28.4092 36.9862 28.4078 36.9768 28.4045 36.968C28.4013 36.9592 28.3964 36.9511 28.39 36.9443L28.3819 36.9361C26.5164 34.9461 22.9636 33.6001 18.8904 33.6001C12.8764 33.6001 8 36.5316 8 40.1456C8 43.7595 12.8764 46.6912 18.8904 46.6912C24.9043 46.6912 29.7807 43.7595 29.7807 40.1456C29.7807 39.8894 29.7566 39.636 29.7081 39.3877ZM61.1095 44.8679C57.457 44.8679 54.4973 42.7536 54.4973 40.1456C54.4973 37.5377 57.457 35.4234 61.1095 35.4234C64.7595 35.4234 67.7193 37.5377 67.7193 40.1456C67.7193 42.7536 64.7593 44.8679 61.1095 44.8679ZM61.1095 33.6001C55.0929 33.6001 50.2165 36.5316 50.2165 40.1456C50.2165 43.7595 55.0929 46.6912 61.1095 46.6912C67.1236 46.6912 72 43.7595 72 40.1456C72 36.5316 67.1236 33.6001 61.1095 33.6001Z" fill="white"/>
</svg>

<svg xmlns="http://www.w3.org/2000/svg" width="80" height="80" fill="none" viewBox="0 0 80 80"><rect width="80" height="80" fill="#005bac" rx="8"/><path fill="#fff" d="M40 45.66h.865c.046 0 .1-.029.124-.066l3.59-5.882 1.953 6.73a.12.12 0 0 0 .105.077h3.768c.043 0 .07-.036.057-.076l-3.976-12.595a.12.12 0 0 0-.105-.078h-1.416c-.043 0-.1.032-.124.07L40 41.354l-4.844-7.514a.16.16 0 0 0-.121-.07h-1.418a.12.12 0 0 0-.103.078l-3.979 12.595c-.01.04.014.075.057.075h3.771c.044 0 .092-.035.103-.075l1.954-6.732 3.59 5.882a.16.16 0 0 0 .122.068zm-10.292-6.272v-.003a.08.08 0 0 0-.078-.062H18.89a1.03 1.03 0 1 0 0 2.058h6.381c-.757 2.009-3.329 3.487-6.38 3.487-3.653 0-6.61-2.114-6.61-4.722s2.957-4.723 6.61-4.723c1.994 0 3.782.631 4.995 1.63q.005.006.01.007.021.016.046.016h4.389a.08.08 0 0 0 .073-.108l-.014-.024-.008-.008c-1.866-1.99-5.418-3.336-9.492-3.336C12.876 33.6 8 36.532 8 40.146s4.876 6.545 10.89 6.545 10.89-2.931 10.89-6.545q0-.386-.072-.758m31.402 5.48c-3.653 0-6.613-2.114-6.613-4.722s2.96-4.723 6.612-4.723c3.65 0 6.61 2.115 6.61 4.723s-2.96 4.722-6.61 4.722m0-11.268c-6.017 0-10.893 2.932-10.893 6.546s4.876 6.545 10.892 6.545S72 43.76 72 40.146 67.124 33.6 61.11 33.6"/></svg>
